X: 20461
M: C|
L: 1/8
K: D
f |\
d<D A>F Eeef | d<D AF A>Bd>A |\
|: f |\
a>da>f beef | a<da>d a<da>f |\
g<bf<a e>de>f | dB AF Ddd :|


